X: 7
T: CULLODEN FIGHT
B: "Old English Country Dances", Frank Kidson ed., William Reeves pub., London 1890
Z: 2010-9-26 John Chambers <jc:trillian.mit.edu>
M: 6/8
L: 1/8
K: G
|: GAG B2G | d2B A2G | BcB c2A | E2A FED |
   GAG B2G | d2B A2G | g2e d2G | A3  G2 :|
|: B2G B2G | E2A FED | B2G B2G | dcB A3  |
   B2G B2G | ABc EFG | ABc dBG | A3  G3 :|


%%sep 1 1 500

%%sep 1 1 500

